X:19
T: Alter Älplerjodel  Bb (trad.)
T:Dirigenten-Notiz, Edi Gasser. 
C:Unterwalden (CH)
%%partsbox
P:ABAB
M:C
%Q:1/4=110
R:Naturjodel
L:1/8
K:Bb
[P:A] F2c2e2 dc | F2 Bc d2 cB | F2ABc2BA | F2Bcd4 | 
F2c2e2 dc | F2 Bc d2 cB | F2Ac f>e dc | B6z2 || 
[P:B] c>B A>G Fe dc | d>c B>GF2B2 | c>B A>G Fe dc | d>c BGF4 | 
c>B A>G Fe dc | d>c B>GF2B2 | c>B AF f>e dc | B6z2 |] 
W:
%W: Parts: A-B-A-B
W:
W: UJV-Naturjodelsammlung: Code-Nr: 00-29
W:http://www.naturjodler.ch/tradition-3.htm  (with AUDIO)
%April 24, 2018

